X: 20
T: Bucks Of Oranmore, The
Z: Ioannis
S: https://thesession.org/tunes/2#setting50373
R: reel
M: 4/4
L: 1/8
K: Dmaj
A2FA A2dB|ADFA BEE2|A2FA A2Bd|(3efg fd eBdB|
A2FA A2dB|ADFA BEE2|DEFA AFAB|defd (3efe dB||
AD D2 ADdB|ADFA BEE2|AD D2 A2Bd|(3efg fd eBdB|
AD D2 ADdB|ADFA BEE2|DEFA AFAB|defd efge||
(3aga fd efdf|adfd edBd|adfd efdf|(3efg fd edBd|
adfd efdf|adfd edBd|fa (3aga bfaf|defd (3efe de||
(3fef df (3efe de|(3fef df edBd|(3fef df efdf|(3efg fd edBd|
(3fef df (3efe de|(3fef df edBd|fa (3aga bfaf|defd efdB||
Adfd gdfd|Adfd edBd|Adfd Adef|gefd edBd|
Adfd gdfd|Adfd edBd|fa (3aga bfaf|defd (3efe dB||

%-------------------- TUNE SEPARATOR --------------------%

